packages/foundations/assets/icons/functional/images/human/wc_sign_14.svg

<svg width="14" height="14" viewBox="0 0 14 14" fill="none" xmlns="http://www.w3.org/2000/svg">
<g clip-path="url(#clip0_185_1302)">
<path fill-rule="evenodd" clip-rule="evenodd" d="M1.40002 4.56095C1.40002 4.14529 1.77186 3.88279 2.12186 3.88279C2.40627 3.88279 2.70146 4.05527 2.77818 4.40779L3.38508 7.1989L4.06877 4.38595C4.14899 4.05597 4.46252 3.88279 4.74686 3.88279C5.03127 3.88279 5.34508 4.04946 5.42502 4.38595L6.0938 7.20926L6.69377 4.40779C6.77399 4.03434 7.06568 3.88279 7.35002 3.88279C7.72186 3.88279 8.07186 4.14529 8.07186 4.56095C8.07186 4.62661 8.06745 4.69087 8.05002 4.75779L6.78127 9.63595C6.69048 9.98511 6.38752 10.1391 6.10318 10.1391C5.81877 10.1391 5.5233 9.98308 5.42502 9.63595L4.72502 7.16411L4.02502 9.63595C3.92513 9.98875 3.63127 10.1391 3.34686 10.1391C3.06252 10.1391 2.75851 9.96348 2.66877 9.61411L1.42186 4.75779C1.40471 4.6908 1.40002 4.62661 1.40002 4.56095ZM8.37818 7.03279C8.37818 4.14529 10.0844 3.83911 10.8282 3.83911C11.2657 3.83911 11.725 3.92661 12.1407 4.12345C12.4469 4.2547 12.5782 4.49529 12.5782 4.73595C12.5782 5.10779 12.2938 5.4797 11.9 5.4797C11.8125 5.4797 11.7032 5.45779 11.6157 5.41411C11.375 5.3047 11.1344 5.23911 10.8938 5.23911C10.5875 5.23911 9.77818 5.23911 9.77818 7.03279C9.77818 8.76095 10.5 8.76095 10.8938 8.76095C11.1563 8.73911 11.4188 8.67345 11.6594 8.58595C11.7469 8.56411 11.8344 8.5422 11.9219 8.5422C12.3157 8.5422 12.6 8.91411 12.6 9.28595C12.6 9.54845 12.4688 9.78911 12.1407 9.92029C11.725 10.0516 11.2875 10.1391 10.85 10.161C9.93128 10.161 8.37818 9.74529 8.37818 7.03279Z" fill="#1A1C1F"/>
</g>
<defs>
<clipPath id="clip0_185_1302">
<rect width="14" height="14" fill="white"/>
</clipPath>
</defs>
</svg>

<svg xmlns="http://www.w3.org/2000/svg" width="14" height="14" fill="none"><g clip-path="url(#a)"><path fill="#1A1C1F" fill-rule="evenodd" d="M1.4 4.561c0-.416.372-.678.722-.678.284 0 .58.172.656.525l.607 2.79.684-2.812c.08-.33.394-.503.678-.503s.598.166.678.503l.669 2.823.6-2.801c.08-.374.372-.525.656-.525.372 0 .722.262.722.678q.002.098-.022.197L6.781 9.636c-.09.35-.393.503-.678.503a.68.68 0 0 1-.678-.503l-.7-2.472-.7 2.472c-.1.353-.394.503-.678.503a.69.69 0 0 1-.678-.525L1.422 4.758A.8.8 0 0 1 1.4 4.56m6.978 2.472c0-2.888 1.706-3.194 2.45-3.194.438 0 .897.088 1.313.284.306.132.437.372.437.613 0 .372-.284.744-.678.744a.7.7 0 0 1-.284-.066 1.75 1.75 0 0 0-.722-.175c-.306 0-1.116 0-1.116 1.794 0 1.728.722 1.728 1.116 1.728.262-.022.525-.088.765-.175.088-.022.175-.044.263-.044.394 0 .678.372.678.744 0 .262-.131.503-.46.634a5.2 5.2 0 0 1-1.29.241c-.919 0-2.472-.416-2.472-3.128" clip-rule="evenodd"/></g><defs><clipPath id="a"><path fill="#fff" d="M0 0h14v14H0z"/></clipPath></defs></svg>
